X:1
T:Title
%%score { 1 | 2 }
L:1/8
M:4/4
K:Bb
V:1 treble nm="Grand Piano"
V:2 bass 
V:1
 z4 z2[Q:1/4=100] [DF]2 | [DF]4 [DF]2 [DF]2 | [EG]4 [EG]2 [EG]2 | [DF]8 | [FB]4 [FB]2 [FB]2 | %5
 [FA]4 G4 | F4 E2 E2 |[M:7/4] D2 D4 z2 z2 z4 |[M:4/4] E8 | D8 |] %10
V:2
 z4 z2 [B,,B,]2 | [B,,B,]4 [B,,B,]2 [B,,B,]2 | [B,,B,]4 [B,,A,]2 [B,,A,]2 | [B,,B,]8 | %4
 [D,B,]4 [D,B,]2 [D,B,]2 | [E,B,]4 [E,B,E]4 | [F,B,D]4 [F,A,C]2 [F,A,C]2 | %7
[M:7/4] [B,,B,]2 [B,,B,]4 z2 z2 z4 |[M:4/4] [F,A,C]8 | [B,,B,]8 |] %10

